X: 100217
M: C|
L: 1/8
K: F
uc |\
|: uf |\
defc d/d/d ~g2 | fd d/d/d (ec)c[1e | defc d/d/d ~g2 | f^c d/d/d {^F}G2G |\
[2 ua |\
bagf dfga | f^c d/d/d {^F}G2G |]
uc |\
[| ua |\
fddf ef~g2 | (fd)df ecca | fddf efga | f^c d/d/d {^F}G2Ga |
fddf ef~g2 | (fd)df ecca | bgaf dfga | f^c d/d/d "^Fine."{^F}G2G "^D.C."|]


